assets/icons/guide.svg

<svg t="1656253306025" class="icon" viewBox="0 0 1024 1024" version="1.1" xmlns="http://www.w3.org/2000/svg" p-id="2861" width="128" height="128"><path d="M948.5312 205.7216c9.1136 9.1136 9.1136 18.3296 0 27.4432L857.1904 324.608C851.0464 327.68 846.4384 329.1136 843.4688 329.1136L550.8096 329.1136l0 109.6704 274.3296 0c12.1856 0 18.3296 6.144 18.3296 18.3296L843.4688 640c0 12.288-6.144 18.3296-18.3296 18.3296L550.8096 658.3296l0 347.4432C550.8096 1017.9584 544.768 1024 532.5824 1024L459.4688 1024c-12.1856 0-18.3296-6.0416-18.3296-18.3296L441.1392 658.3296 112.0256 658.3296c-3.072 0-7.5776-1.4336-13.7216-4.608L6.8608 562.2784c-9.1136-9.1136-9.1136-18.3296 0-27.4432L98.304 443.392c6.144-3.072 10.6496-4.608 13.7216-4.608l329.1136 0L441.1392 329.1136 130.2528 329.1136c-12.1856 0-18.3296-6.0416-18.3296-18.3296L111.9232 128c0-12.1856 6.144-18.3296 18.3296-18.3296l310.8864 0L441.1392 18.3296C441.1392 6.144 447.2832 0 459.4688 0l73.1136 0C544.768 0 550.8096 6.144 550.8096 18.3296l0 91.4432 292.5568 0c3.072 0 7.5776 1.536 13.7216 4.608L948.5312 205.7216zM806.8096 475.4432 118.8864 475.4432 45.6704 548.5568l73.1136 73.1136 688.0256 0L806.8096 475.4432zM909.7216 219.4432 836.608 146.3296 148.5824 146.3296l0 146.3296L836.608 292.6592 909.7216 219.4432zM477.696 109.6704l36.5568 0L514.2528 36.5568 477.696 36.5568 477.696 109.6704zM514.2528 329.1136 477.696 329.1136l0 109.6704 36.5568 0L514.2528 329.1136zM514.2528 658.3296 477.696 658.3296l0 329.1136 36.5568 0L514.2528 658.3296z" p-id="2862"></path></svg>

<svg class="icon" viewBox="0 0 1024 1024" xmlns="http://www.w3.org/2000/svg" width="128" height="128"><path d="M948.531 205.722c9.114 9.113 9.114 18.33 0 27.443l-91.34 91.443c-6.145 3.072-10.753 4.506-13.722 4.506h-292.66v109.67h274.33c12.186 0 18.33 6.144 18.33 18.33V640c0 12.288-6.144 18.33-18.33 18.33H550.81v347.443c0 12.185-6.041 18.227-18.227 18.227H459.47c-12.186 0-18.33-6.042-18.33-18.33V658.33H112.026c-3.072 0-7.578-1.434-13.722-4.608L6.861 562.278c-9.114-9.113-9.114-18.33 0-27.443l91.443-91.443c6.144-3.072 10.65-4.608 13.722-4.608h329.113v-109.67H130.253c-12.186 0-18.33-6.042-18.33-18.33V128c0-12.186 6.144-18.33 18.33-18.33h310.886V18.33C441.14 6.144 447.283 0 459.47 0h73.113c12.186 0 18.228 6.144 18.228 18.33v91.443h292.556c3.072 0 7.578 1.536 13.722 4.608l91.443 91.34zM806.81 475.443H118.886L45.67 548.557l73.114 73.113H806.81V475.443zm102.912-256-73.114-73.113H148.582v146.33h688.026l73.114-73.217zM477.696 109.67h36.557V36.557h-36.557v73.113zm36.557 219.444h-36.557v109.67h36.557v-109.67zm0 329.216h-36.557v329.113h36.557V658.33z"/></svg>
